src/pos-icons/content-save-alert-outline.svg

<svg height="24" viewBox="0 0 24 24" width="24" xmlns="http://www.w3.org/2000/svg"><path d="m22 7v5h-2v-5zm-2 9h2v-2h-2zm-2-8v10c0 1.11-.89 2-2 2h-12c-1.1 0-2-.89-2-2v-12c0-1.11.9-2 2-2h10zm-2 .83-2.83-2.83h-9.17v12h12zm-4-1.83h-7v3h7zm-2.25 5.25c-1.25 0-2.25 1.01-2.25 2.25s1 2.26 2.25 2.26 2.25-1.01 2.25-2.26-1-2.25-2.25-2.25z"/></svg>

<?xml version="1.0" encoding="UTF-8"?><!DOCTYPE svg PUBLIC "-//W3C//DTD SVG 1.1//EN" "http://www.w3.org/Graphics/SVG/1.1/DTD/svg11.dtd"><svg xmlns="http://www.w3.org/2000/svg" xmlns:xlink="http://www.w3.org/1999/xlink" version="1.1" id="mdi-content-save-alert-outline" width="24" height="24" viewBox="0 0 24 24"><path d="M22 7V12H20V7H22M20 16H22V14H20V16M18 8V18C18 19.11 17.11 20 16 20H4C2.9 20 2 19.11 2 18V6C2 4.89 2.9 4 4 4H14L18 8M16 8.83L13.17 6H4V18H16V8.83M12 7H5V10H12V7M9.75 12.25C8.5 12.25 7.5 13.26 7.5 14.5S8.5 16.76 9.75 16.76 12 15.75 12 14.5 11 12.25 9.75 12.25Z" /></svg>
